dist/icons/socials/vk.svg

<svg width="30" height="30" viewBox="0 0 30 30" fill="none" xmlns="http://www.w3.org/2000/svg">
<path d="M28.5 25.5V4.5C28.5 2.85 27.1455 1.5 25.4925 1.5H4.5075C2.7825 1.5 1.5 2.7795 1.5 4.5V25.5C1.5 27.222 2.7825 28.5 4.5075 28.5H25.4925C26.2885 28.4988 27.0516 28.1826 27.6152 27.6205C28.1787 27.0583 28.4968 26.296 28.5 25.5ZM22.776 17.4105C22.776 17.4105 24.474 19.086 24.8925 19.863C24.9045 19.8795 24.909 19.8945 24.9135 19.9005C25.083 20.1855 25.1265 20.4105 25.041 20.5755C24.9 20.85 24.42 20.988 24.2565 21H21.258C21.048 21 20.613 20.946 20.085 20.5815C19.68 20.2995 19.2795 19.833 18.8895 19.3785C18.3075 18.7035 17.8035 18.1185 17.2965 18.1185C17.2322 18.1183 17.1683 18.129 17.1075 18.15C16.722 18.273 16.233 18.8205 16.233 20.283C16.233 20.7405 15.873 21.0015 15.618 21.0015H14.244C13.776 21.0015 11.3385 20.838 9.18 18.5595C6.531 15.7695 4.152 10.173 4.131 10.1235C3.981 9.762 4.2915 9.5655 4.629 9.5655H7.659C8.0655 9.5655 8.196 9.8115 8.289 10.032C8.394 10.2825 8.79 11.2935 9.438 12.4305C10.4925 14.28 11.142 15.033 11.6595 15.033C11.7563 15.0325 11.8513 15.0071 11.9355 14.9595C12.612 14.586 12.486 12.174 12.456 11.676C12.456 11.5815 12.4545 10.5975 12.1095 10.125C11.8605 9.783 11.439 9.6525 11.184 9.603C11.288 9.45972 11.4248 9.34347 11.583 9.264C12.0465 9.033 12.882 9 13.713 9H14.175C15.0765 9.012 15.3105 9.0705 15.636 9.153C16.2945 9.3105 16.308 9.738 16.2495 11.193C16.233 11.607 16.215 12.0765 16.215 12.627C16.215 12.7455 16.2105 12.876 16.2105 13.011C16.1895 13.755 16.1655 14.5965 16.6905 14.9415C16.7584 14.984 16.8369 15.0069 16.917 15.0075C17.1 15.0075 17.6475 15.0075 19.131 12.462C19.7835 11.3385 20.286 10.0125 20.3205 9.9135C20.3729 9.80646 20.4488 9.71263 20.5425 9.639C20.6193 9.59909 20.7049 9.57899 20.7915 9.5805H24.354C24.744 9.5805 25.008 9.639 25.0575 9.7875C25.143 10.026 25.041 10.7535 23.4135 12.9525L22.689 13.9125C21.213 15.8445 21.213 15.9435 22.776 17.4105Z" fill="black" fill-opacity="0.5"/>
</svg>

<svg width="30" height="30" fill="none" xmlns="http://www.w3.org/2000/svg"><path d="M28.5 25.5v-21c0-1.65-1.355-3-3.008-3H4.508C2.784 1.5 1.5 2.78 1.5 4.5v21c0 1.722 1.283 3 3.008 3h20.985a3.012 3.012 0 003.007-3zm-5.724-8.09s1.698 1.676 2.116 2.453c.012.017.017.032.021.038.17.285.213.51.128.675-.141.274-.621.412-.785.424h-2.998c-.21 0-.645-.054-1.173-.419-.405-.282-.806-.748-1.195-1.203-.582-.675-1.087-1.26-1.593-1.26a.574.574 0 00-.19.032c-.385.123-.874.67-.874 2.133 0 .457-.36.718-.615.718h-1.374c-.468 0-2.905-.163-5.064-2.442-2.649-2.79-5.028-8.386-5.049-8.436-.15-.361.16-.557.498-.557h3.03c.407 0 .537.245.63.466.105.25.501 1.261 1.149 2.399 1.054 1.849 1.704 2.602 2.221 2.602a.567.567 0 00.276-.073c.677-.374.551-2.786.521-3.284 0-.095-.002-1.079-.346-1.551-.25-.342-.671-.473-.926-.522.104-.143.24-.26.399-.339.463-.231 1.299-.264 2.13-.264h.462c.901.012 1.135.07 1.461.153.659.157.672.585.614 2.04-.017.414-.035.883-.035 1.434 0 .118-.005.249-.005.384-.02.744-.044 1.586.48 1.93a.433.433 0 00.227.066c.183 0 .73 0 2.214-2.545.652-1.123 1.155-2.45 1.19-2.548a.792.792 0 01.221-.275.52.52 0 01.25-.058h3.562c.39 0 .654.058.704.207.085.238-.017.966-1.645 3.165l-.724.96c-1.476 1.931-1.476 2.03.087 3.497z" fill="#000" fill-opacity=".5"/></svg>
